!!!COM: Palestrina, Giovanni Perluigi da
!!!OPR: Inviolata
!!!OTL: Agnus II
**kern	**kern	**kern	**kern	**kern
*Ibass	*Itenor	*Itenor	*Icalto	*Icant
!Bassus	!Tenor 2	!Tenor 1	!Altus	!Cantus
*clefF4	*clefGv2	*clefGv2	*clefG2	*clefG2
*k[b-]	*k[b-]	*k[b-]	*k[b-]	*k[b-]
*F:ion	*F:ion	*F:ion	*F:ion	*F:ion
*M4/2	*M4/2	*M4/2	*M4/2	*M4/2
=1	=1	=1	=1	=1
0r	0r	0r	1B-	0r
.	.	.	2c	.
.	.	.	[2d	.
=2	=2	=2	=2	=2
0r	1B-	0r	2d]	0f
.	.	.	4c	.
.	.	.	4B-	.
.	2c	.	2A	.
.	[2d	.	[2B-	.
=3	=3	=3	=3	=3
0r	2d]	0r	2B-]	0f
.	4c	.	4A	.
.	4B-	.	4G	.
.	2A	.	2F	.
.	[2B-	.	4B-	.
.	.	.	4c	.
=4	=4	=4	=4	=4
0r	2B-]	0r	4d	1f
.	.	.	4e	.
.	2A	.	1f	.
.	1G	.	.	1g
.	.	.	2e	.
=5	=5	=5	=5	=5
1F	2F	0c	1f	1a
.	2F	.	.	.
2G	2E	.	1r	1r
[2A	[2F	.	.	.
=6	=6	=6	=6	=6
2A]	2F]	0c	1F	0r
4G	4E	.	.	.
4F	4D	.	.	.
2E	2C	.	2G	.
[2F	4F	.	[2A	.
.	4G	.	.	.
=7	=7	=7	=7	=7
2F]	4A	1c	2A]	1r
.	4B-	.	.	.
2E	2.c	.	2G	.
1D	.	1d	1F	1f
.	4B	.	.	.
.	4B	.	.	.
.	4A	.	.	.
=8	=8	=8	=8	=8
1C	1c	1e	2r	1g
.	.	.	1c	.
1r	1F	1r	.	1a
.	.	.	[2d	.
=9	=9	=9	=9	=9
1r	1G	0r	2d]	1b-
.	.	.	2e	.
1F	1A	.	1f	1a
=10	=10	=10	=10	=10
1G	1B-	1r	2.d	2g
.	.	.	.	2.b-
.	.	.	4e	.
1A	2c	1c	2f	.
.	.	.	.	4a
.	2A	.	2e	[2a
=11	=11	=11	=11	=11
1B-	2r	1d	2d	2a]
.	1d	.	2G	2g
2.A	.	1e	2r	1a
.	2c#	.	[2A	.
4G	.	.	.	.
=12	=12	=12	=12	=12
2F	1d	1f	2A]	0r
2D	.	.	1d	.
1A	2r	1e	.	.
.	[2A	.	2c#	.
=13	=13	=13	=13	=13
1D	2A]	2d	2.d	1f
.	1d	2.f	.	.
.	.	.	4c	.
1r	.	.	2B-	[1g
.	.	4e	.	.
.	[2c	[2e	2c	.
=14	=14	=14	=14	=14
0r	2c]	2e]	1G	1g]
.	2B-	2d	.	.
.	1A	1e	2r	1a
.	.	.	2c	.
=15	=15	=15	=15	=15
1G	2r	0r	2d	1b-
.	2G	.	2e	.
[1F	2.A	.	2f	[1a
.	.	.	4F	.
.	4B-	.	4G	.
=16	=16	=16	=16	=16
2F]	2c	1c	4A	2a]
.	.	.	4B-	.
2E	2G	.	2c	2g
2.D	4B-	[1d	1F	2.f
.	4A	.	.	.
.	[2A	.	.	.
4C	.	.	.	4e
=17	=17	=17	=17	=17
1BB-	4A]	1d]	1r	1d
.	4G	.	.	.
.	4G	.	.	.
.	4F	.	.	.
1AA	1A	1e	2r	1c
.	.	.	2A	.
=18	=18	=18	=18	=18
1D	1F	1f	2A	0r
.	.	.	2B	.
[1C	1G	[1e	2.c	.
.	.	.	8B-	.
.	.	.	8A	.
=19	=19	=19	=19	=19
2C]	2C	2e]	1G	0r
2BB-	4D	2d	.	.
.	4E	.	.	.
2.AA	4F	2.c	2.A	.
.	4G	.	.	.
.	[2A	.	.	.
4GG	.	4B	4B	.
=20	=20	=20	=20	=20
1FF	4A]	1A	1c	1f
.	4G	.	.	.
.	1F	.	.	.
1C	.	1G	2r	1g
.	2E	.	[2c	.
=21	=21	=21	=21	=21
2r	1F	0r	2c]	1a
2F	.	.	1d	.
1G	1r	.	.	1b-
.	.	.	[2e	.
=22	=22	=22	=22	=22
1A	2r	0r	2e]	1a
.	2F	.	2f	.
1r	1G	.	2.d	2g
.	.	.	.	[2b-
.	.	.	4e	.
=23	=23	=23	=23	=23
0r	1A	1c	2f	2b-]
.	.	.	1e	1a
.	1B-	1d	.	.
.	.	.	[2d	2g
=24	=24	=24	=24	=24
1AA	1A	1e	2d]	0a
.	.	.	2c#	.
1D	1F	1f	2d	.
.	.	.	2A	.
=25	=25	=25	=25	=25
1C	2.G	1e	1c	0r
.	4A	.	.	.
2.D	2B-	2d	2.F	.
.	[2A	[2f	.	.
4E	.	.	4G	.
=26	=26	=26	=26	=26
2F	2A]	2f]	4A	0r
.	.	.	4B-	.
2C	1G	1e	1c	.
1D	.	.	.	.
.	2F	2d	2B	.
=27	=27	=27	=27	=27
1C	1G	0e	1c	1g
1r	1A	.	1c	1e
=28	=28	=28	=28	=28
1D	1F	0r	1A	1f
1BB-	1G	.	1B-	1d
=29	=29	=29	=29	=29
1C	1.E	0r	2G	0r
.	.	.	2.c	.
1AA	.	.	.	.
.	.	.	4B-	.
.	[2F	.	4A	.
.	.	.	4G	.
=30	=30	=30	=30	=30
1D	4F]	1d	1A	1r
.	4E	.	.	.
.	4D	.	.	.
.	4C	.	.	.
1GG	1D	1B	1G	1g
=31	=31	=31	=31	=31
1r	1C	1c	2r	1e
.	.	.	1c	.
1F	1r	1A	.	1f
.	.	.	2A	.
=32	=32	=32	=32	=32
1G	0r	0r	1B-	2d
.	.	.	.	2.g
1C	.	.	2G	.
.	.	.	.	4f
.	.	.	[2c	4e
.	.	.	.	4d
=33	=33	=33	=33	=33
1AA	1A	1r	4c]	2e
.	.	.	4B-	.
.	.	.	4A	2.f
.	.	.	4G	.
1D	1F	1d	2A	.
.	.	.	.	4e
.	.	.	[2B-	4d
.	.	.	.	4c
=34	=34	=34	=34	=34
1GG	2D	1B-	4B-]	1d
.	.	.	4A	.
.	2G	.	4G	.
.	.	.	4F	.
1C	1E	1c	1G	1c
=35	=35	=35	=35	=35
2FF	1F	2A	1F	1r
1BB-	.	2.d	.	.
.	[1G	.	2.B-	1b-
.	.	4c	.	.
[2GG	.	4B-	.	.
.	.	4A	4c	.
=36	=36	=36	=36	=36
2GG]	1G]	2B-	2d	1g
2C	.	2.c	2e	.
2FF	1F	.	1f	1a
.	.	4B-	.	.
[2F	.	4A	.	.
.	.	4G	.	.
=37	=37	=37	=37	=37
2F]	2r	1A	2r	1f
2D	1d	.	2f	.
1G	.	1G	1d	2.b-
.	2B-	.	.	.
.	.	.	.	4a
=38	=38	=38	=38	=38
1C	1c	1r	1e	4g
.	.	.	.	4f
.	.	.	.	2g
1F	1A	1f	1c	2.a
.	.	.	.	4g
=39	=39	=39	=39	=39
1BB-	2.B-	1d	1d	4f
.	.	.	.	4e
.	.	.	.	1f
.	4A	.	.	.
1C	1G	1e	1c	.
.	.	.	.	2e
=40	=40	=40	=40	=40
1FF	2F	1c	2.A	2f
.	1A	.	.	1cc
.	.	.	4B-	.
1F	.	2.f	1c	.
.	[2F	.	.	2a
.	.	4e	.	.
=41	=41	=41	=41	=41
1BB-	2F]	4d	1d	1b-
.	.	4c	.	.
.	1G	2d	.	.
1C	.	2.e	[1c	1g
.	[2E	.	.	.
.	.	4d	.	.
=42	=42	=42	=42	=42
1AA	2E]	4c	1c]	2.a
.	.	4B	.	.
.	1A	1c	.	.
.	.	.	.	4g
1D	.	.	1F	4f
.	.	.	.	4e
.	4G	2B	.	[2f
.	4F	.	.	.
=43	=43	=43	=43	=43
0C	0G	[0c	2r	2f]
.	.	.	2.c	4e
.	.	.	.	4d
.	.	.	.	1e
.	.	.	4B-	.
.	.	.	2G	.
=44	=44	=44	=44	=44
[0FF	[0F	1c_	[0A	[0f
.	.	1c_	.	.
=45	=45	=45	=45	=45
0FF]	0F]	0c]	0A]	0f]
==	==	==	==	==
*-	*-	*-	*-	*-
!!!CDT: 1525/^1526/-1594/2/2
!!!OCY: Italia
!!!AGN: Mass (Parody)
!!!AST: renaissance, vocal
!!!ASW: Motet 1532 (Courtois)
!!!PWK: Masses, Book 2
!!!RNB: Cadence finals: C
!!!YOR: Le Opere Complete, v. 4, p. 26
!!!YOO: Rome, Italy: Fratelli Scalera
!!!END: 1992//
!!!EED: John Miller
!!!YEC: Copyright 2000, John Miller
!!!YEN: United States of America
!!!YEM: Rights to all derivative electronic formats reserved.
!!!YEM: Refer to licensing agreement for further details.
!!!YEM: This file must be accompanied by the licensing agreement.
!!!YEM: A copy of the licensing agreement may be found at http://www.music-cog.ohio-state.edu/HumdrumDatabases/Palestrina/license.txt
!!!EMD: converted to Humdrum by Bret Aarden
